X:1
T:Title
%%score { 1 | 2 }
L:1/8
M:2/4
K:F
V:1 treble nm="Grand Piano"
V:2 bass 
V:1
 z4 |[Q:1/4=100] A2 GF | c>[CEB] [CFA]2 | [CEG]2 [=B,DG][B,FA] | [CEG]4 | A2 GF | c>[GB] A2 | %7
 G2 A=B | [Ec]4 | c2 BA | [FB]>[Fc] [Fd]2 | cd cA | FA [EG]2 | A2 GF | [Ec]>[GB] [FA]2 | [DG]2 FE | %16
 F4 |] %17
V:2
 z4 | [F,CF]2 [F,B,C][F,A,C] | [E,G,C]>C, F,2 | C,2 D,G,, | C,4 | [F,CF]2 [B,CE][A,C] | %6
 [G,CE]>[C,C][K:treble] [F,CF]2 | [G,CE]2 [G,CF][G,DF] | [C,C]4 | [F,A,F]2 [F,DF][F,CF] | %10
 [D,B,]>[D,A,] [B,,B,]2 | [F,A,F][F,B,F] [F,A,F][F,CF] | [F,A,C][F,CF] [C,C]2 | %13
 [F,CF]2 [F,B,C][F,A,C] | [C,G,]>[C,C] [F,C]2 | [B,,B,]2 [C,A,C][C,G,C] | [F,A,C]4 |] %17

